picto/tracks-19-fr-small.svg

<svg class="color-immutable" width="24" height="24" viewBox="0 0 24 24" fill="none" xmlns="http://www.w3.org/2000/svg"><path d="M0 22.5V1.5C0 0.675 0.675 0 1.5 0H22.5C23.325 0 24 0.675 24 1.5V22.5C24 23.325 23.325 24 22.5 24H1.5C0.675 24 0 23.325 0 22.5Z" fill="#2D327D"/><path d="M9.355 9.757V21H7.109V13.64H6.309H5.509H4.733H4.463V12.01C5.012 11.995 5.459 11.938 5.805 11.841C6.151 11.744 6.468 11.585 6.755 11.364C7.17 11.046 7.45 10.51 7.593 9.757H9.355Z" fill="white"/><path d="M12.523 18.178H14.646C14.82 19.05 15.325 19.485 16.161 19.485C16.633 19.485 17.016 19.325 17.311 19.004C17.606 18.684 17.833 18.185 17.992 17.508C18.094 17.077 18.169 16.588 18.215 16.039C17.871 16.521 17.519 16.863 17.158 17.066C16.797 17.269 16.357 17.37 15.839 17.37C15.013 17.37 14.296 17.129 13.686 16.647C13.26 16.309 12.928 15.87 12.69 15.332C12.452 14.794 12.332 14.209 12.332 13.579C12.332 12.313 12.765 11.287 13.632 10.503C14.375 9.826 15.267 9.488 16.308 9.488C16.949 9.488 17.541 9.632 18.084 9.919C18.627 10.206 19.084 10.614 19.453 11.142C20.104 12.08 20.43 13.398 20.43 15.095C20.43 16.664 20.143 18.002 19.569 19.109C18.82 20.55 17.687 21.27 16.17 21.27C15.16 21.27 14.325 20.991 13.667 20.432C13.006 19.872 12.625 19.121 12.523 18.178ZM16.26 11.387C15.778 11.387 15.37 11.584 15.037 11.979C14.704 12.379 14.537 12.887 14.537 13.502C14.537 13.999 14.657 14.44 14.898 14.825C15.226 15.353 15.687 15.617 16.282 15.617C16.82 15.617 17.251 15.402 17.574 14.971C17.876 14.566 18.028 14.084 18.028 13.525C18.028 12.935 17.872 12.436 17.559 12.025C17.232 11.6 16.799 11.387 16.26 11.387Z" fill="white"/><path d="M5.036 3L4.288 5.249H3.73L2.993 3H3.507L4.013 4.684L4.527 3H5.036Z" fill="white"/><path d="M5.87399 3.523C6.11799 3.523 6.31699 3.604 6.47199 3.766C6.62499 3.926 6.70099 4.139 6.70099 4.406C6.70099 4.682 6.61899 4.902 6.45599 5.066C6.30399 5.218 6.10499 5.295 5.85999 5.295C5.59899 5.295 5.38999 5.21 5.23599 5.04C5.08799 4.877 5.01399 4.667 5.01399 4.409C5.01399 4.155 5.08599 3.948 5.22899 3.789C5.38899 3.612 5.60299 3.523 5.87399 3.523ZM5.85099 3.871C5.73299 3.871 5.63899 3.919 5.56999 4.014C5.49899 4.11 5.46299 4.242 5.46299 4.409C5.46299 4.582 5.49799 4.715 5.56799 4.807C5.63999 4.9 5.73799 4.947 5.86199 4.947C5.97799 4.947 6.06999 4.904 6.13699 4.819C6.21399 4.725 6.25199 4.588 6.25199 4.408C6.25199 4.24 6.21799 4.109 6.14999 4.016C6.07999 3.919 5.97999 3.871 5.85099 3.871Z" fill="white"/><path d="M7.44899 3V3.401H7.00299V3H7.44899ZM7.44899 3.572V5.249H7.00299V3.572H7.44899Z" fill="white"/><path d="M9.32099 4.726C9.29699 4.82 9.25499 4.909 9.19299 4.992C9.04499 5.194 8.83299 5.295 8.55599 5.295C8.30599 5.295 8.10499 5.216 7.95499 5.058C7.88099 4.981 7.82499 4.888 7.78599 4.78C7.74399 4.664 7.72299 4.543 7.72299 4.417C7.72299 4.173 7.79299 3.968 7.93399 3.802C8.09099 3.616 8.29399 3.524 8.54299 3.524C8.74399 3.524 8.91499 3.586 9.05699 3.71C9.15899 3.799 9.23199 3.909 9.27799 4.04C9.32399 4.171 9.34699 4.335 9.34699 4.533H8.17699C8.18099 4.615 8.19399 4.683 8.21499 4.738C8.27499 4.885 8.38999 4.958 8.55999 4.958C8.64299 4.958 8.71099 4.94 8.76299 4.903C8.81499 4.867 8.85799 4.808 8.89199 4.727H9.32099V4.726ZM8.89199 4.232C8.88399 4.151 8.86499 4.084 8.83599 4.031C8.80799 3.978 8.76699 3.937 8.71399 3.906C8.66099 3.875 8.60399 3.86 8.54099 3.86C8.44199 3.86 8.35999 3.893 8.29499 3.96C8.22999 4.026 8.19199 4.117 8.17999 4.232H8.89199Z" fill="white"/></svg>

<svg class="color-immutable" width="24" height="24" viewBox="0 0 24 24" fill="none" xmlns="http://www.w3.org/2000/svg"><g clip-path="url(#a)"><path d="M0 22.5v-21C0 .675.675 0 1.5 0h21c.825 0 1.5.675 1.5 1.5v21c0 .825-.675 1.5-1.5 1.5h-21C.675 24 0 23.325 0 22.5Z" fill="#2D327D"/><path d="M9.355 9.757V21H7.109v-7.36H4.463v-1.63c.549-.015.996-.072 1.342-.169a2.77 2.77 0 0 0 .95-.477c.415-.318.695-.854.838-1.607h1.762ZM12.523 18.178h2.123c.174.872.679 1.307 1.515 1.307.472 0 .855-.16 1.15-.481.295-.32.522-.819.681-1.496.102-.431.177-.92.223-1.469-.344.482-.696.824-1.057 1.027-.361.203-.801.304-1.319.304-.826 0-1.543-.241-2.153-.723a3.401 3.401 0 0 1-.996-1.315 4.287 4.287 0 0 1-.358-1.753c0-1.266.433-2.292 1.3-3.076.743-.677 1.635-1.015 2.676-1.015.641 0 1.233.144 1.776.431.543.287 1 .695 1.369 1.223.651.938.977 2.256.977 3.953 0 1.569-.287 2.907-.861 4.014-.749 1.441-1.882 2.161-3.399 2.161-1.01 0-1.845-.279-2.503-.838-.661-.56-1.042-1.311-1.144-2.254Zm3.737-6.791c-.482 0-.89.197-1.223.592-.333.4-.5.908-.5 1.523 0 .497.12.938.361 1.323.328.528.789.792 1.384.792.538 0 .969-.215 1.292-.646.302-.405.454-.887.454-1.446 0-.59-.156-1.089-.469-1.5a1.559 1.559 0 0 0-1.299-.638ZM5.036 3l-.748 2.249H3.73L2.993 3h.514l.506 1.684L4.527 3h.509ZM5.874 3.523a.79.79 0 0 1 .598.243c.153.16.229.373.229.64 0 .276-.082.496-.245.66a.807.807 0 0 1-.596.229c-.261 0-.47-.085-.624-.255-.148-.163-.222-.373-.222-.631 0-.254.072-.461.215-.62.16-.177.374-.266.645-.266Zm-.023.348a.33.33 0 0 0-.281.143.652.652 0 0 0-.107.395c0 .173.035.306.105.398.072.093.17.14.294.14a.332.332 0 0 0 .275-.128c.077-.094.115-.231.115-.411 0-.168-.034-.299-.102-.392a.347.347 0 0 0-.299-.145ZM7.449 3v.401h-.446V3h.446Zm0 .572v1.677h-.446V3.572h.446ZM9.321 4.726a.752.752 0 0 1-.128.266c-.148.202-.36.303-.637.303-.25 0-.451-.079-.601-.237a.775.775 0 0 1-.169-.278 1.058 1.058 0 0 1-.063-.363c0-.244.07-.449.211-.615a.76.76 0 0 1 .609-.278.754.754 0 0 1 .735.516c.046.131.069.295.069.493h-1.17c.004.082.017.15.038.205.06.147.175.22.345.22a.343.343 0 0 0 .203-.055.39.39 0 0 0 .129-.176h.429v-.001Zm-.429-.494a.525.525 0 0 0-.056-.201.334.334 0 0 0-.295-.171.328.328 0 0 0-.246.1.44.44 0 0 0-.115.272h.712Z" fill="#fff"/></g><defs><clipPath id="a"><path fill="#fff" d="M0 0h24v24H0z"/></clipPath></defs></svg>
